projects/flag-game/flags/Belgium.svg

<svg viewBox="0 0 1000 867" xmlns="http://www.w3.org/2000/svg" xmlns:xlink="http://www.w3.org/1999/xlink"><clipPath id="a"><path d="m0 0h1000v866.878906h-1000zm0 0"/></clipPath><clipPath id="b"><path d="m0 0h667v866.878906h-667zm0 0"/></clipPath><clipPath id="c"><path d="m0 0h334v866.878906h-334zm0 0"/></clipPath><g clip-path="url(#a)"><path d="m0 866.667969v-866.667969h1000v866.667969zm0 0" fill="#ed2939" fill-rule="evenodd"/></g><g clip-path="url(#b)"><path d="m0 0h666.667969v866.667969h-666.667969zm0 0" fill="#fae042" fill-rule="evenodd"/></g><g clip-path="url(#c)"><path d="m0 0h333.332031v866.667969h-333.332031zm0 0" fill-rule="evenodd"/></g></svg>

<?xml version="1.0" encoding="UTF-8"?>
<svg xmlns="http://www.w3.org/2000/svg" xmlns:xlink="http://www.w3.org/1999/xlink" viewBox="0 0 1000 867" version="1.1">
<defs>
<clipPath id="clip1">
  <path d="M 0 0 L 1000 0 L 1000 866.878906 L 0 866.878906 Z M 0 0 "/>
</clipPath>
<clipPath id="clip2">
  <path d="M 0 0 L 667 0 L 667 866.878906 L 0 866.878906 Z M 0 0 "/>
</clipPath>
<clipPath id="clip3">
  <path d="M 0 0 L 334 0 L 334 866.878906 L 0 866.878906 Z M 0 0 "/>
</clipPath>
</defs>
<g id="surface169">
<g clip-path="url(#clip1)" clip-rule="nonzero">
<path style=" stroke:none;fill-rule:evenodd;fill:rgb(92.939758%,16.078186%,22.3526%);fill-opacity:1;" d="M 0 866.667969 L 0 0 L 1000 0 L 1000 866.667969 Z M 0 866.667969 "/>
</g>
<g clip-path="url(#clip2)" clip-rule="nonzero">
<path style=" stroke:none;fill-rule:evenodd;fill:rgb(98.03772%,87.841797%,25.881958%);fill-opacity:1;" d="M 0 0 L 666.667969 0 L 666.667969 866.667969 L 0 866.667969 Z M 0 0 "/>
</g>
<g clip-path="url(#clip3)" clip-rule="nonzero">
<path style=" stroke:none;fill-rule:evenodd;fill:rgb(0%,0%,0%);fill-opacity:1;" d="M 0 0 L 333.332031 0 L 333.332031 866.667969 L 0 866.667969 Z M 0 0 "/>
</g>
</g>
</svg>
